X:6
T:No.50 Kitty Sheain's Barndance
C:barndance
M:4/4
L:1/8
K:G
B>c||d<g d>B G>B D>G|F2E2E>G A>B|
c>B c>A F>D F>A|d2^c>e d>=c B>c|
d<g d>B G>B D>G|F2E2 E>G A>B|
c>B c>A F>D E>F|[1G2B>A G>A B>c:|
|[2G2B>A G>B A>G||F2F>E F>A c>F|
G2G>F G>A B>c|d>A F>A D>F A>c|
B2B>AB2(3def|g>b (3agf g>d B>d|
c2c>B c>B A>B|c>B A>F d>c A>F|
|[1G2B>A G>B A>G:|[2G2B>A G>A B>c||
